resources/haticons/SVG/palantir.svg

<!-- Generated by IcoMoon.io -->
<svg version="1.1" xmlns="http://www.w3.org/2000/svg" width="24" height="24" viewBox="0 0 24 24">
<title>palantir</title>
<path d="M20.147 18l-8.147 3.178-8.147-3.178-1.353 2.343 9.5 3.657 9.5-3.657zM12 0c-5.247 0-9.5 4.253-9.5 9.5s4.253 9.5 9.5 9.5v0c5.247 0 9.5-4.253 9.5-9.5s-4.253-9.5-9.5-9.5v0zM12 16.078c-3.627 0-6.568-2.941-6.568-6.568s2.941-6.568 6.568-6.568v0c3.627 0 6.568 2.941 6.568 6.568s-2.941 6.568-6.568 6.568v0z"></path>
</svg>

<svg xmlns="http://www.w3.org/2000/svg" width="24" height="24"><path d="M20.147 18L12 21.178 3.853 18 2.5 20.343 12 24l9.5-3.657zM12 0C6.753 0 2.5 4.253 2.5 9.5S6.753 19 12 19s9.5-4.253 9.5-9.5S17.247 0 12 0zm0 16.078a6.569 6.569 0 0 1 0-13.136 6.569 6.569 0 0 1 0 13.136z"/></svg>
